; generated by PrusaSlicer 2.9.0 on 2025-01-08 at 14:36:45 UTC


;
;
; 

; external perimeters extrusion width = 0.45mm
; perimeters extrusion width = 0.45mm
; infill extrusion width = 0.45mm
; solid infill extrusion width = 0.45mm
; top infill extrusion width = 0.40mm
; support material extrusion width = 0.35mm
; first layer extrusion width = 0.42mm

M73 P0 R113
M73 Q0 S113
M201 X1000 Y1000 Z200 E5000 ; sets maximum accelerations, mm/sec^2
M203 X200 Y200 Z12 E120 ; sets maximum feedrates, mm / sec
M204 S1250 T1250 ; sets acceleration (S) and retract acceleration (R), mm/sec^2
M205 X8.00 Y8.00 Z0.40 E4.50 ; sets the jerk limits, mm/sec
M205 S0 T0 ; sets the minimum extruding and travel feed rate, mm/sec

; printing object eckteil.stl id:0 copy 0
; stop printing object eckteil.stl id:0 copy 0

;TYPE:Custom
M862.3 P "MK3S" ; printer model check
M862.1 P0.4 ; nozzle diameter check
M115 U3.14.1 ; tell printer latest fw version
G90 ; use absolute coordinates
M83 ; extruder relative mode
M104 S215 ; set extruder temp
M140 S60 ; set bed temp
M190 S60 ; wait for bed temp
M109 S215 ; wait for extruder temp
G28 W ; home all without mesh bed level
G80 X103.261 Y83.7229 W43.0163 H43.0163 ; mesh bed levelling

G1 Z0.2 F720
G1 Y-3 F1000 ; go outside print area
G92 E0
G1 X60 E9 F1000 ; intro line
G1 X100 E12.5 F1000 ; intro line

G92 E0
M221 S95

; Don't change E values below. Excessive value can damage the printer.

M907 E538 ; set extruder motor current
G21 ; set units to millimeters
G90 ; use absolute coordinates
M83 ; use relative distances for extrusion

M900 K0.05 ; Filament gcode LA 1.5
M900 K30 ; Filament gcode LA 1.0




M107
;LAYER_CHANGE
;Z:0.2
;HEIGHT:0.2
G1 E-.8 F2100
M73 P0 R112
G1 Z.6 F720
G1 X104.552 Y90.54 F10800
G1 Z.2 F720
G1 E.8 F2100
M204 S800
;TYPE:Skirt/Brim
;WIDTH:0.42
G1 F1200
G1 X107.54 Y87.552 E.13249
G1 X108.595 Y86.968 E.03781
G1 X121.595 Y83.968 E.41832
G1 X122.088 Y83.911 E.01556
G1 X129.101 Y83.912 E.21989
G1 X130.386 Y83.968 E.04033
G1 X131.764 Y84.138 E.04353
G1 X133.621 Y84.549 E.05963
G1 X134.95 Y84.981 E.04382
G1 X136.322 Y85.56 E.04669
G1 X137.448 Y86.146 E.0398
G1 X138.709 Y86.937 E.04667
G1 X139.899 Y87.839 E.04682
G1 X140.934 Y88.771 E.04367
G1 X142.22 Y90.174 E.05967
G1 X143.063 Y91.291 E.04388
G1 X143.854 Y92.552 E.04667
G1 X144.44 Y93.678 E.0398
G1 X145.019 Y95.05 E.04669
G1 X145.477 Y96.471 E.04681
G1 X145.79 Y97.826 E.0436
G1 X146.032 Y99.614 E.05657
G1 X146.089 Y107.912 E.26018
G1 X146.033 Y108.405 E.01556
G1 X143.033 Y121.405 E.41832
G1 X142.448 Y122.46 E.03782
G1 X139.46 Y125.448 E.13249
G1 X138.019 Y126.086 E.04941
G1 X128.471 Y126.551 E.29973
G1 X117.337 Y126.551 E.3491
G1 X115.79 Y125.91 E.0525
G1 X104.09 Y114.21 E.5188
G1 X103.449 Y112.663 E.0525
G1 X103.449 Y101.493 E.35023
G1 X103.914 Y91.98 E.29863
G1 X104.528 Y90.595 E.0475
M204 S1000
;WIPE_START
G1 F8640
G1 X104.552 Y90.54 E-.01386
G1 X106.959 Y88.133 E-.78614
;WIPE_END
G1 Z.6 F720
G1 X107.009 Y91.847 F10800
G1 Z.2 F720
G1 E.8 F2100
M204 S800
G1 F1200
G1 X107.161 Y91.547 E.01054
G1 X108.096 Y90.519 E.04357
G1 X108.781 Y90.011 E.02674
G1 X110.753 Y89.387 E.06485
G1 X119.751 Y89.387 E.28213
G1 X119.884 Y89.04 E.01165
G1 X120.456 Y88.157 E.03299
G1 X121.32 Y87.333 E.03743
G1 X122.353 Y86.744 E.03728
G1 X123.774 Y86.387 E.04594
G1 X129.051 Y86.387 E.16546
G1 X130.322 Y86.447 E.0399
G1 X131.563 Y86.613 E.03926
G1 X132.802 Y86.89 E.03981
G1 X134.001 Y87.269 E.03943
G1 X135.163 Y87.75 E.03943
G1 X136.28 Y88.329 E.03945
G1 X137.338 Y88.999 E.03927
G1 X138.344 Y89.765 E.03965
G1 X139.384 Y90.718 E.04423
G1 X140.245 Y91.668 E.0402
G1 X141.016 Y92.685 E.04001
G1 X141.694 Y93.762 E.0399
G1 X142.278 Y94.897 E.04002
G1 X142.758 Y96.076 E.03991
G1 X143.135 Y97.295 E.04001
G1 X143.404 Y98.538 E.03988
G1 X143.613 Y100.933 E.07538
G1 X143.535 Y106.747 E.18231
G1 X143.189 Y107.806 E.03493
G1 X142.59 Y108.785 E.03599
G1 X141.621 Y109.716 E.04213
G1 X140.61 Y110.26 E.036
G1 X140.566 Y119.56 E.2916
G1 X140.142 Y120.905 E.04422
G1 X139.345 Y122.068 E.04421
G1 X138.216 Y122.98 E.04551
G1 X136.849 Y123.519 E.04607
G1 X136.092 Y123.614 E.02392
G1 X128.464 Y123.568 E.23917
G1 X126.823 Y123.006 E.05439
G1 X125.875 Y122.289 E.03727
G1 X125.094 Y121.339 E.03856
G1 X124.611 Y120.301 E.0359
G1 X124.386 Y119.118 E.03776
G1 X124.407 Y105.612 E.42347
G1 X110.518 Y105.578 E.43548
G1 X109.124 Y105.155 E.04568
G1 X107.942 Y104.354 E.04477
G1 X107.021 Y103.218 E.04585
G1 X106.481 Y101.848 E.04617
G1 X106.386 Y101.09 E.02395
G1 X106.437 Y93.41 E.24081
G1 X106.713 Y92.435 E.03177
G1 X106.982 Y91.901 E.01875
M204 S1000
G1 X106.982 Y91.901 F10800
G1 X107.317 Y92.071
M204 S800
G1 F1200
G1 X107.485 Y91.742 E.01158
G1 X108.361 Y90.788 E.04061
G1 X108.979 Y90.334 E.02404
G1 X110.782 Y89.764 E.05929
G1 X120.018 Y89.764 E.28959
G1 X120.213 Y89.224 E.018
G1 X120.734 Y88.413 E.03022
G1 X121.529 Y87.648 E.03459
G1 X122.472 Y87.103 E.03415
G1 X123.798 Y86.764 E.04291
G1 X130.281 Y86.822 E.20328
G1 X131.489 Y86.983 E.03821
G1 X132.697 Y87.253 E.03881
G1 X133.864 Y87.621 E.03837
G1 X134.997 Y88.089 E.03844
G1 X136.085 Y88.653 E.03842
G1 X137.116 Y89.304 E.03823
G1 X138.096 Y90.049 E.0386
G1 X139.123 Y90.99 E.04367
G1 X139.959 Y91.914 E.03907
G1 X140.711 Y92.906 E.03903
G1 X141.371 Y93.955 E.03886
G1 X141.938 Y95.062 E.039
G1 X142.406 Y96.21 E.03887
G1 X142.773 Y97.398 E.03899
G1 X143.034 Y98.609 E.03884
G1 X143.183 Y99.781 E.03704
G1 X143.236 Y100.945 E.03653
G1 X143.158 Y106.712 E.18084
G1 X142.839 Y107.666 E.03154
G1 X142.311 Y108.53 E.03175
G1 X141.379 Y109.425 E.04051
G1 X140.234 Y110.031 E.04062
G1 X140.197 Y119.476 E.29614
G1 X139.814 Y120.717 E.04072
G1 X139.084 Y121.794 E.04079
G1 X138.048 Y122.641 E.04196
G1 X136.777 Y123.148 E.0429
G1 X136.082 Y123.236 E.02197
G1 X128.555 Y123.2 E.23601
G1 X127.024 Y122.686 E.05064
G1 X126.151 Y122.032 E.0342
G1 X125.401 Y121.119 E.03705
G1 X124.963 Y120.165 E.03291
G1 X124.763 Y119.101 E.03395
G1 X124.784 Y105.236 E.43473
G1 X110.598 Y105.209 E.44479
G1 X109.309 Y104.826 E.04216
G1 X108.215 Y104.093 E.04129
G1 X107.36 Y103.05 E.04229
G1 X106.852 Y101.777 E.04297
G1 X106.763 Y101.079 E.02206
G1 X106.807 Y93.488 E.23801
G1 X107.071 Y92.555 E.0304
G1 X107.29 Y92.125 E.01513
M204 S1000
G1 X107.29 Y92.125 F10800
G1 X107.624 Y92.296
M204 S800
G1 F1200
G1 X107.808 Y91.938 E.01262
G1 X108.624 Y91.059 E.03761
G1 X109.176 Y90.656 E.02143
G1 X110.811 Y90.141 E.05375
G1 X120.287 Y90.141 E.29711
G1 X120.544 Y89.406 E.02441
G1 X121.013 Y88.668 E.02742
G1 X121.741 Y87.961 E.03182
G1 X122.593 Y87.461 E.03097
G1 X123.822 Y87.141 E.03982
G1 X129.042 Y87.141 E.16367
G1 X130.255 Y87.198 E.03807
G1 X131.431 Y87.356 E.0372
G1 X132.591 Y87.615 E.03727
G1 X133.728 Y87.973 E.03738
G1 X134.831 Y88.428 E.03741
G1 X135.891 Y88.976 E.03741
G1 X136.895 Y89.61 E.03723
G1 X137.848 Y90.333 E.03751
G1 X138.861 Y91.262 E.0431
G1 X139.674 Y92.161 E.038
G1 X140.405 Y93.127 E.03798
G1 X141.047 Y94.149 E.03784
G1 X141.599 Y95.227 E.03797
G1 X142.054 Y96.345 E.03785
G1 X142.41 Y97.501 E.03793
G1 X142.664 Y98.681 E.03785
G1 X142.859 Y100.945 E.07125
G1 X142.782 Y106.675 E.17968
G1 X142.489 Y107.523 E.02813
G1 X142.032 Y108.275 E.02759
G1 X141.137 Y109.134 E.0389
G1 X140.225 Y109.614 E.03231
G1 X139.858 Y109.715 E.01193
G1 X139.828 Y119.394 E.30348
G1 X139.484 Y120.532 E.03728
G1 X138.822 Y121.522 E.03734
G1 X137.879 Y122.303 E.03839
G1 X136.704 Y122.777 E.03973
G1 X136.07 Y122.859 E.02004
G1 X128.644 Y122.833 E.23284
G1 X127.224 Y122.365 E.04688
G1 X126.428 Y121.774 E.03109
G1 X125.708 Y120.899 E.03553
G1 X125.317 Y120.032 E.02982
G1 X125.141 Y119.085 E.0302
G1 X125.162 Y104.859 E.44605
G1 X110.677 Y104.839 E.45417
M73 Q0 S112
G1 X109.493 Y104.495 E.03866
G1 X108.488 Y103.831 E.03777
G1 X107.67 Y102.834 E.04044
G1 X107.223 Y101.705 E.03807
G1 X107.141 Y101.068 E.02014
G1 X107.177 Y93.566 E.23522
G1 X107.428 Y92.677 E.02896
G1 X107.596 Y92.35 E.01153
M204 S1000
G1 X107.596 Y92.35 F10800
G1 X107.929 Y92.523
M204 S800
G1 F1200
G1 X108.13 Y92.136 E.01367
G1 X108.886 Y91.331 E.03463
G1 X109.372 Y90.98 E.0188
G1 X110.839 Y90.518 E.04822
G1 X120.557 Y90.518 E.3047
G1 X120.876 Y89.587 E.03086
G1 X121.293 Y88.92 E.02466
G1 X121.954 Y88.273 E.029
G1 X122.717 Y87.818 E.02785
G1 X123.847 Y87.518 E.03666
G1 X130.213 Y87.573 E.19961
G1 X132.486 Y87.977 E.07239
G1 X134.665 Y88.766 E.07266
G1 X136.674 Y89.915 E.07257
G1 X137.599 Y90.617 E.03641
G1 X138.6 Y91.534 E.04256
G1 X139.389 Y92.408 E.03692
G1 X140.099 Y93.347 E.03691
G1 X140.723 Y94.342 E.03682
G1 X141.26 Y95.391 E.03695
G1 X141.701 Y96.479 E.03681
G1 X142.047 Y97.604 E.0369
G1 X142.433 Y99.861 E.07179
G1 X142.482 Y100.946 E.03405
G1 X142.415 Y106.583 E.17676
G1 X142.155 Y107.347 E.0253
G1 X141.75 Y108.023 E.02471
G1 X140.937 Y108.813 E.03554
G1 X140.071 Y109.269 E.03069
G1 X139.481 Y109.419 E.01909
G1 X139.459 Y119.313 E.31022
G1 X139.154 Y120.349 E.03386
G1 X138.557 Y121.252 E.03394
G1 X137.709 Y121.966 E.03476
G1 X136.63 Y122.407 E.03655
G1 X136.058 Y122.482 E.01809
G1 X128.731 Y122.465 E.22973
G1 X127.421 Y122.042 E.04316
G1 X126.704 Y121.516 E.02788
G1 X126.016 Y120.68 E.03395
G1 X125.671 Y119.9 E.02674
G1 X125.518 Y119.068 E.02652
G1 X125.54 Y104.482 E.45733
G1 X110.755 Y104.469 E.46357
G1 X109.673 Y104.163 E.03526
G1 X108.759 Y103.568 E.0342
G1 X108.008 Y102.665 E.03683
G1 X107.594 Y101.632 E.03489
G1 X107.518 Y101.057 E.01819
G1 X107.546 Y93.644 E.23243
G1 X107.786 Y92.798 E.02757
G1 X107.901 Y92.576 E.00784
M204 S1000
G1 X107.901 Y92.576 F10800
G1 X108.233 Y92.75
M204 S800
G1 F1200
G1 X108.451 Y92.335 E.0147
G1 X109.146 Y91.604 E.03163
G1 X109.566 Y91.304 E.01618
G1 X110.868 Y90.895 E.04279
G1 X120.92 Y90.895 E.31517
G1 X120.947 Y90.543 E.01107
G1 X121.208 Y89.766 E.0257
G1 X121.575 Y89.172 E.02189
G1 X122.169 Y88.583 E.02623
G1 X122.842 Y88.175 E.02468
G1 X123.873 Y87.895 E.0335
G1 X129.033 Y87.895 E.16179
G1 X131.284 Y88.096 E.07086
G1 X133.456 Y88.676 E.07049
G1 X135.516 Y89.63 E.07118
G1 X137.364 Y90.912 E.07052
G1 X138.326 Y91.793 E.0409
G1 X139.785 Y93.555 E.07173
G1 X140.913 Y95.541 E.07161
G1 X141.68 Y97.692 E.0716
G1 X141.92 Y98.807 E.03576
G1 X142.105 Y100.958 E.06769
G1 X142.048 Y106.492 E.17352
G1 X141.82 Y107.174 E.02255
G1 X141.467 Y107.773 E.0218
G1 X140.737 Y108.493 E.03215
G1 X139.917 Y108.924 E.02905
G1 X139.105 Y109.121 E.0262
G1 X139.082 Y119.284 E.31865
G1 X138.801 Y120.211 E.03037
G1 X138.26 Y121.018 E.03046
G1 X137.491 Y121.656 E.03133
G1 X136.556 Y122.036 E.03164
G1 X136.045 Y122.105 E.01617
G1 X128.817 Y122.097 E.22663
G1 X127.617 Y121.718 E.03946
G1 X126.979 Y121.257 E.02468
G1 X126.325 Y120.461 E.0323
G1 X126.025 Y119.771 E.02359
G1 X125.895 Y119.052 E.02291
G1 X125.917 Y104.105 E.46865
G1 X110.829 Y104.099 E.47307
G1 X109.852 Y103.83 E.03177
G1 X109.028 Y103.302 E.03068
G1 X108.346 Y102.494 E.03315
G1 X107.964 Y101.557 E.03173
G1 X107.895 Y101.045 E.0162
G1 X107.916 Y93.722 E.22961
G1 X108.143 Y92.92 E.02613
G1 X108.205 Y92.803 E.00415
M204 S1000
G1 X108.205 Y92.803 F10800
G1 X108.534 Y92.979
M204 S800
G1 F1200
G1 X108.771 Y92.537 E.01573
G1 X109.404 Y91.88 E.02861
G1 X109.759 Y91.63 E.01361
G1 X110.897 Y91.272 E.03741
G1 X121.288 Y91.272 E.3258
G1 X121.314 Y90.634 E.02002
G1 X121.559 Y89.908 E.02402
G1 X121.882 Y89.392 E.01909
G1 X122.418 Y88.867 E.02352
G1 X122.969 Y88.531 E.02023
G1 X123.899 Y88.272 E.03027
G1 X130.13 Y88.323 E.19538
G1 X132.291 Y88.705 E.06881
G1 X134.348 Y89.451 E.06861
G1 X136.257 Y90.544 E.06897
G1 X137.129 Y91.207 E.03435
G1 X138.052 Y92.053 E.03926
G1 X139.47 Y93.763 E.06965
G1 X140.567 Y95.691 E.06955
G1 X140.985 Y96.717 E.03474
G1 X141.313 Y97.779 E.03485
G1 X141.683 Y99.94 E.06874
G1 X141.68 Y106.403 E.20264
G1 X141.484 Y107.001 E.01973
G1 X141.155 Y107.559 E.02031
G1 X140.495 Y108.202 E.02889
G1 X139.766 Y108.577 E.0257
G1 X139.183 Y108.714 E.01878
G1 X138.728 Y108.725 E.01427
G1 X138.713 Y119.201 E.32847
G1 X138.449 Y120.075 E.02863
G1 X137.999 Y120.745 E.02531
G1 X137.273 Y121.347 E.02957
G1 X136.481 Y121.666 E.02677
G1 X136.032 Y121.728 E.01421
G1 X128.9 Y121.728 E.22362
G1 X127.81 Y121.393 E.03575
G1 X127.252 Y120.996 E.02147
G1 X126.658 Y120.284 E.02907
G1 X126.392 Y119.679 E.02072
G1 X126.272 Y119.035 E.02054
G1 X126.295 Y103.728 E.47994
G1 X110.902 Y103.728 E.48264
G1 X110.027 Y103.495 E.02839
G1 X109.294 Y103.034 E.02715
G1 X108.682 Y102.321 E.02946
G1 X108.334 Y101.48 E.02854
G1 X108.272 Y101.032 E.01418
G1 X108.286 Y93.8 E.22675
G1 X108.5 Y93.043 E.02467
G1 X108.506 Y93.032 E.00039
M204 S1000
G1 X108.506 Y93.032 F10800
G1 X108.857 Y93.166
M204 S800
G1 F1200
G1 X109.088 Y92.741 E.01517
G1 X109.95 Y91.956 E.03656
G1 X110.926 Y91.649 E.03208
G1 X121.66 Y91.649 E.33656
G1 X121.681 Y90.726 E.02895
G1 X121.908 Y90.051 E.02233
G1 X122.187 Y89.615 E.01623
G1 X122.665 Y89.152 E.02087
G1 X123.098 Y88.886 E.01593
G1 X123.926 Y88.649 E.027
G1 X129.024 Y88.649 E.15984
G1 X131.153 Y88.838 E.06702
G1 X133.214 Y89.391 E.06691
G1 X135.155 Y90.292 E.0671
G1 X136.894 Y91.502 E.06643
G1 X137.779 Y92.313 E.03764
G1 X139.155 Y93.971 E.06756
G1 X140.221 Y95.841 E.06749
G1 X140.946 Y97.867 E.06747
G1 X141.308 Y99.979 E.06719
G1 X141.313 Y106.313 E.1986
G1 X141.132 Y106.863 E.01815
G1 X140.845 Y107.343 E.01754
G1 X140.255 Y107.911 E.02568
G1 X139.658 Y108.215 E.02101
G1 X139.119 Y108.342 E.01736
G1 X138.351 Y108.348 E.02408
G1 X138.344 Y119.122 E.33781
G1 X138.118 Y119.893 E.02519
G1 X137.733 Y120.476 E.02191
G1 X137.101 Y121.01 E.02594
G1 X136.404 Y121.296 E.02362
G1 X136.018 Y121.351 E.01223
G1 X128.928 Y121.351 E.2223
G1 X128.001 Y121.067 E.0304
G1 X127.523 Y120.732 E.0183
G1 X126.992 Y120.106 E.02574
G1 X126.746 Y119.548 E.01912
G1 X126.649 Y119.018 E.01689
G1 X126.673 Y103.351 E.49123
G1 X110.928 Y103.351 E.49367
G1 X110.156 Y103.139 E.0251
G1 X109.523 Y102.733 E.02358
G1 X108.99 Y102.101 E.02592
G1 X108.704 Y101.404 E.02362
G1 X108.649 Y101.018 E.01223
G1 X108.656 Y93.877 E.2239
G1 X108.841 Y93.224 E.02128
M204 S1000
G1 X108.841 Y93.224 F10800
G1 X109.204 Y93.327
M204 S800
G1 F1200
G1 X109.214 Y93.291 E.00117
G1 X109.404 Y92.949 E.01227
G1 X109.914 Y92.437 E.02266
G1 X110.139 Y92.283 E.00855
G1 X110.955 Y92.026 E.02682
G1 X122.035 Y92.026 E.34741
G1 X122.049 Y90.814 E.038
G1 X122.241 Y90.23 E.01928
G1 X122.467 Y89.869 E.01335
G1 X123.231 Y89.239 E.03105
G1 X123.954 Y89.026 E.02363
G1 X130.048 Y89.073 E.19108
G1 X132.096 Y89.434 E.0652
G1 X134.031 Y90.135 E.06453
G1 X135.826 Y91.163 E.06486
G1 X137.506 Y92.573 E.06877
G1 X138.841 Y94.179 E.06548
G1 X139.875 Y95.991 E.06541
G1 X140.27 Y96.956 E.03269
G1 X140.58 Y97.955 E.0328
G1 X140.932 Y100.004 E.06519
G1 X140.946 Y106.223 E.19499
G1 X140.781 Y106.724 E.01654
G1 X140.537 Y107.124 E.01469
G1 X140.016 Y107.617 E.02249
G1 X139.548 Y107.854 E.01645
G1 X139.093 Y107.965 E.01468
G1 X137.974 Y107.974 E.03509
G1 X137.974 Y119.045 E.34712
G1 X137.785 Y119.714 E.0218
G1 X137.465 Y120.21 E.01851
G1 X136.927 Y120.675 E.0223
G1 X136.325 Y120.927 E.02046
G1 X128.956 Y120.974 E.23105
G1 X128.189 Y120.739 E.02515
G1 X127.791 Y120.466 E.01513
G1 X127.325 Y119.928 E.02232
G1 X127.1 Y119.417 E.01751
G1 X127.026 Y119.002 E.01322
G1 X127.05 Y102.895 E.50502
G1 X126.679 Y102.974 E.01189
G1 X110.955 Y102.974 E.49301
G1 X110.286 Y102.785 E.0218
G1 X109.79 Y102.465 E.01851
G1 X109.325 Y101.927 E.0223
G1 X109.073 Y101.325 E.02046
G1 X109.026 Y93.955 E.23109
G1 X109.187 Y93.385 E.01857
M73 P0 R111
M204 S1000
G1 X109.187 Y93.385 F10800
G1 X109.575 Y93.533
M204 S800
G1 F1200
G1 X109.718 Y93.16 E.01253
G1 X110.325 Y92.612 E.02564
G1 X110.984 Y92.403 E.02168
G1 X122.407 Y92.403 E.35816
G1 X122.426 Y90.849 E.04873
G1 X122.574 Y90.407 E.01461
G1 X122.747 Y90.122 E.01045
G1 X123.367 Y89.592 E.02557
G1 X123.983 Y89.403 E.0202
G1 X129.016 Y89.403 E.15781
G1 X131.021 Y89.581 E.06311
G1 X132.957 Y90.1 E.06285
G1 X134.779 Y90.947 E.063
G1 X136.423 Y92.091 E.0628
G1 X137.232 Y92.833 E.03442
G1 X138.526 Y94.387 E.06341
G1 X139.53 Y96.142 E.06339
G1 X140.213 Y98.044 E.06336
G1 X140.555 Y100.028 E.06312
G1 X140.578 Y106.134 E.19145
G1 X140.43 Y106.584 E.01485
G1 X140.231 Y106.904 E.01182
G1 X139.821 Y107.293 E.01772
